X:1
T:知心客
C:張仰求
O:China, Jiangsu, Yangzhou
L:1/8
M:2/4
K:C
AG ED/E/ | G4 | Ac/d/ eg | c>d e2 | cc/d/ eg | de/d/ cd |
w: 天 * 缘 * *|吓|巧 * * * *|遇 * *|知 * * 吓 *|知 * * 心 *|
AA/G/ ED | G4 | ee/d/ ce | de/d/ cd | GG Ac/A/ | G2 AG |
w: 客， * * * *||奴 * * 的 *|终 * * 身 *|许 * 了 * *|他 郎 吓，|
ed cd/e/ | Ac GA | ed c2 | cd/c/ AG/A/ | c2 de | c4 | GG Ac/A/ | 
w: 咳 嗽 勒 里 *|困 * 勿 *|着。 * *||||嗳 * 嗳 * *|
G2 AG | ed cd/e/ | Ac GA | ed c2 | cd/c/ AG/A/ | c2 de | c4 |] 
w: 吓， 郎 吓，|咳 嗽 勒 里 *|困 * 勿 *|着。 * *||||
